img/partners/vtb-bank.svg

<svg width="195" height="69" viewBox="0 0 195 69" fill="none" xmlns="http://www.w3.org/2000/svg">
<path d="M56.5496 9.17592H10.424L13.7468 0H59.8725L56.5496 9.17592ZM54.8882 13.7639H8.74175L5.41888 22.9398H51.5445L54.8882 13.7639ZM49.9038 27.4861H3.75744L0.43457 36.662H46.5187L49.9038 27.4861Z" fill="#009FDF"/>
<path d="M166.453 59.6227H174.761C175.941 59.7643 177.139 59.6119 178.247 59.1792C179.355 58.7464 180.34 58.0464 181.116 57.1411C182.255 55.6436 182.829 53.7889 182.736 51.9066C182.814 50.7088 182.594 49.5104 182.098 48.4185C181.601 47.3266 180.843 46.3755 179.89 45.6503C178.348 44.6371 176.514 44.1676 174.678 44.3156H166.453V59.6227ZM155.55 68.8612V13.764H191.25L188.114 23.0024H166.453V35.2023H175.28C182.403 35.2023 186.1 36.9123 188.654 39.102C190.481 40.726 191.917 42.7442 192.856 45.0051C193.795 47.2661 194.211 49.7111 194.075 52.1569C194.215 54.7906 193.698 57.4177 192.57 59.7996C191.442 62.1815 189.739 64.2426 187.616 65.7956C184.189 68.173 180.596 68.8404 173.286 68.8404L155.55 68.8612ZM123.941 68.8612V22.9816H108.075V13.764H152.124L148.988 23.0024H134.948V68.8821L123.941 68.8612ZM79.9757 35.8279H86.2061C87.4803 35.9153 88.7604 35.817 90.0066 35.5359C91.3026 35.1202 92.4195 34.2747 93.1742 33.138C93.9288 32.0012 94.2765 30.6408 94.1602 29.2796C94.3331 27.9271 94.0057 26.5579 93.2401 25.4316C92.4745 24.3054 91.324 23.5004 90.0066 23.1693C88.646 22.8521 87.2482 22.7258 85.853 22.7939H79.9757V35.8279ZM79.9757 45.3583V59.8104H87.5768C89.6716 60.0509 91.7778 59.4679 93.4541 58.1838C94.2266 57.465 94.8319 56.584 95.2268 55.6036C95.6216 54.6231 95.7964 53.5674 95.7386 52.5114C95.7717 50.8242 95.2618 49.1713 94.2848 47.7983C92.6649 45.7129 90.6712 45.3166 87.2652 45.3166L79.9757 45.3583ZM97.5454 39.54V39.7276C99.397 40.4434 101.127 41.4423 102.675 42.689C104.24 43.9927 105.476 45.6483 106.284 47.5216C107.092 49.3948 107.45 51.4329 107.327 53.4707C107.327 60.9991 103.34 66.4421 96.7977 68.0687C94.1901 68.7088 91.5042 68.9687 88.8228 68.8404H69.0725V13.764H86.6422C89.4328 13.6615 92.2249 13.9209 94.9494 14.5356C101.304 16.2456 105.479 20.6459 105.479 27.5904C105.531 29.2461 105.246 30.8951 104.643 32.4368C104.039 33.9785 103.13 35.3806 101.969 36.5578C100.736 37.8145 99.2682 38.8139 97.6492 39.4983L97.5454 39.54Z" fill="#0A2973"/>
</svg>

<svg width="195" height="69" fill="none" xmlns="http://www.w3.org/2000/svg"><path d="M56.55 9.176H10.424L13.747 0h46.126L56.55 9.176Zm-1.662 4.588H8.742L5.419 22.94h46.125l3.344-9.176Zm-4.984 13.722H3.757L.435 36.662h46.084l3.385-9.176Z" fill="#009FDF"/><path d="M166.453 59.623h8.308a7.22 7.22 0 0 0 3.486-.444 7.257 7.257 0 0 0 2.869-2.038 7.996 7.996 0 0 0 1.62-5.234 7.29 7.29 0 0 0-.638-3.488 7.252 7.252 0 0 0-2.208-2.769 8.28 8.28 0 0 0-5.212-1.334h-8.225v15.307ZM155.55 68.86V13.764h35.7l-3.136 9.238h-21.661v12.2h8.827c7.123 0 10.82 1.71 13.374 3.9a16.22 16.22 0 0 1 4.202 5.903 16.29 16.29 0 0 1 1.219 7.152c.14 2.634-.377 5.26-1.505 7.643a15.814 15.814 0 0 1-4.954 5.996c-3.427 2.377-7.02 3.044-14.33 3.044l-17.736.021Zm-31.609 0v-45.88h-15.866v-9.217h44.049l-3.136 9.238h-14.04v45.88l-11.007-.02ZM79.976 35.828h6.23c1.274.087 2.554-.011 3.8-.292a6.005 6.005 0 0 0 3.168-2.398 6.047 6.047 0 0 0 .986-3.858 5.586 5.586 0 0 0-.92-3.848 5.545 5.545 0 0 0-3.233-2.263 15.06 15.06 0 0 0-4.154-.375h-5.877v13.034Zm0 9.53V59.81h7.6a8.137 8.137 0 0 0 5.878-1.626 7.197 7.197 0 0 0 2.285-5.673 7.864 7.864 0 0 0-1.454-4.713c-1.62-2.085-3.614-2.481-7.02-2.481l-7.29.041Zm17.57-5.818v.188a19.236 19.236 0 0 1 5.129 2.961 12.978 12.978 0 0 1 3.609 4.833 13.039 13.039 0 0 1 1.043 5.949c0 7.528-3.987 12.971-10.53 14.598-2.607.64-5.293.9-7.974.771h-19.75V13.764h17.57c2.79-.102 5.582.157 8.306.772 6.355 1.71 10.53 6.11 10.53 13.054a12.251 12.251 0 0 1-.836 4.847 12.21 12.21 0 0 1-2.674 4.12 13.316 13.316 0 0 1-4.32 2.941l-.104.042Z" fill="#0A2973"/></svg>
